src/assets/imgs/icons/wallet/ic_leasing_cancel_in.svg

<?xml version="1.0" encoding="UTF-8"?>
<svg width="32px" height="32px" viewBox="0 0 32 32" version="1.1" xmlns="http://www.w3.org/2000/svg" xmlns:xlink="http://www.w3.org/1999/xlink">
    <!-- Generator: Sketch 52.5 (67469) - http://www.bohemiancoding.com/sketch -->
    <title>ic_incoming_cancel</title>
    <desc>Created with Sketch.</desc>
    <g id="Export" stroke="none" stroke-width="1" fill="none" fill-rule="evenodd">
        <g id="ic_incoming_cancel">
            <circle id="Oval-2" fill="#FFCE8A" cx="16" cy="16" r="16"></circle>
            <path d="M9.9963,9.2917 L7.8543,7.1487 C7.7563,7.0527 7.6283,7.0037 7.5003,7.0037 C7.3723,7.0037 7.2443,7.0527 7.1463,7.1487 C6.9513,7.3457 6.9513,7.6617 7.1463,7.8567 L9.2893,10.0007 C8.4713,10.9177 7.8323,12.0127 7.4383,13.2357 C6.2423,16.9517 7.5723,21.0167 10.7313,23.3007 C10.8373,23.3817 10.9723,23.4157 11.1033,23.3957 C11.2353,23.3737 11.3533,23.3007 11.4293,23.1897 C11.5873,22.9657 11.5383,22.6557 11.3203,22.4897 C8.5193,20.4547 7.3453,16.8437 8.4123,13.5447 C8.7563,12.4807 9.3083,11.5277 10.0143,10.7257 L15.5003,16.2117 L15.5003,24.2847 L13.8563,22.5997 C13.6613,22.4027 13.3453,22.4007 13.1483,22.5937 C12.9523,22.7877 12.9503,23.1047 13.1433,23.3027 L15.6433,25.8577 C15.8323,26.0487 16.1683,26.0487 16.3563,25.8577 L18.8563,23.3027 C19.0493,23.1047 19.0473,22.7877 18.8513,22.5937 C18.7533,22.4987 18.6263,22.4507 18.5003,22.4507 C18.3703,22.4507 18.2413,22.5007 18.1433,22.5997 L16.5003,24.2847 L16.5003,17.2117 L21.2923,22.0037 C21.1003,22.1747 20.8983,22.3367 20.6873,22.4897 C20.5793,22.5677 20.5083,22.6867 20.4873,22.8167 C20.4663,22.9487 20.4993,23.0827 20.5773,23.1897 C20.7433,23.4087 21.0513,23.4577 21.2753,23.3007 C21.5303,23.1157 21.7733,22.9207 22.0033,22.7147 L24.1433,24.8547 C24.3383,25.0497 24.6553,25.0497 24.8503,24.8547 C25.0453,24.6587 25.0453,24.3427 24.8503,24.1467 L22.7103,22.0077 C24.8163,19.6527 25.5683,16.3097 24.5613,13.2127 C23.3523,9.4907 19.8823,6.9797 15.9783,6.9997 C13.7163,7.0007 11.6043,7.8517 9.9963,9.2917 Z M10.7203,10.0167 C12.1453,8.7557 14.0093,8.0127 16.0033,8.0127 C19.4623,8.0127 22.5283,10.2467 23.5953,13.5447 C24.4763,16.2697 23.8293,19.2077 21.9973,21.2947 L16.3883,15.6847 C16.3673,15.6587 16.3433,15.6347 16.3163,15.6127 L10.7203,10.0167 Z" id="Shape" fill="#FFFFFF"></path>
        </g>
    </g>
</svg>

<?xml version="1.0" encoding="utf-8"?>
<!-- Generator: Adobe Illustrator 23.0.1, SVG Export Plug-In . SVG Version: 6.00 Build 0)  -->
<svg version="1.1" id="图层_1" xmlns="http://www.w3.org/2000/svg" xmlns:xlink="http://www.w3.org/1999/xlink" x="0px" y="0px"
	 viewBox="0 0 32 32" style="enable-background:new 0 0 32 32;" xml:space="preserve">
<style type="text/css">
	.st0{fill-rule:evenodd;clip-rule:evenodd;fill:#ECBA6F;}
	.st1{fill-rule:evenodd;clip-rule:evenodd;fill:#FFFFFF;}
</style>
<title>ic_incoming_cancel</title>
<desc>Created with Sketch.</desc>
<circle id="Oval-2" class="st0" cx="16" cy="16" r="16"/>
<path id="Shape" class="st1" d="M10,9.3L7.9,7.1C7.8,7.1,7.6,7,7.5,7c-0.1,0-0.3,0-0.4,0.1C7,7.3,7,7.7,7.1,7.9L9.3,10
	c-0.8,0.9-1.5,2-1.9,3.2C6.2,17,7.6,21,10.7,23.3c0.1,0.1,0.2,0.1,0.4,0.1c0.1,0,0.2-0.1,0.3-0.2c0.2-0.2,0.1-0.5-0.1-0.7
	c-2.8-2-4-5.6-2.9-8.9c0.3-1.1,0.9-2,1.6-2.8l5.5,5.5v8.1l-1.6-1.7c-0.2-0.2-0.5-0.2-0.7,0c-0.2,0.2-0.2,0.5,0,0.7l2.5,2.6
	c0.2,0.2,0.5,0.2,0.7,0l2.5-2.6c0.2-0.2,0.2-0.5,0-0.7c-0.1-0.1-0.2-0.1-0.4-0.1c-0.1,0-0.3,0-0.4,0.1l-1.6,1.7v-7.1l4.8,4.8
	c-0.2,0.2-0.4,0.3-0.6,0.5c-0.1,0.1-0.2,0.2-0.2,0.3c0,0.1,0,0.3,0.1,0.4c0.2,0.2,0.5,0.3,0.7,0.1c0.3-0.2,0.5-0.4,0.7-0.6l2.1,2.1
	c0.2,0.2,0.5,0.2,0.7,0c0.2-0.2,0.2-0.5,0-0.7L22.7,22c2.1-2.4,2.9-5.7,1.9-8.8C23.4,9.5,19.9,7,16,7C13.7,7,11.6,7.9,10,9.3z
	 M10.7,10C12.1,8.8,14,8,16,8c3.5,0,6.5,2.2,7.6,5.5c0.9,2.7,0.2,5.7-1.6,7.8l-5.6-5.6c0,0,0-0.1-0.1-0.1L10.7,10z"/>
</svg>
